src/assets/icons/phone.svg

<svg xmlns="http://www.w3.org/2000/svg" viewBox="0 0 24 24"><path d="M18.023 24.039a6.293 6.293 0 01-3.411-1.01A50.484 50.484 0 01.993 9.406c-1.606-2.524-1.259-5.747.84-7.846l.774-.774A2.58 2.58 0 014.442.028c.694 0 1.345.269 1.834.758l3.262 3.266a2.597 2.597 0 01-.002 3.667 1.098 1.098 0 00.001 1.549l5.232 5.233c.193.192.468.306.76.306s.567-.114.773-.32c.49-.489 1.141-.759 1.835-.759s1.345.269 1.835.758l3.261 3.26a2.598 2.598 0 010 3.669l-.774.774a6.24 6.24 0 01-4.436 1.85zm-2.581-2.26c.798.5 1.683.757 2.583.757 1.267 0 2.464-.5 3.372-1.408l.774-.774a1.098 1.098 0 000-1.549l-3.26-3.259c-.206-.206-.481-.319-.774-.319s-.568.114-.774.32a2.578 2.578 0 01-1.834.759 2.57 2.57 0 01-1.824-.75l-5.228-5.229a2.598 2.598 0 010-3.669 1.096 1.096 0 00.001-1.545l-.027-.028-3.236-3.239a1.09 1.09 0 00-.773-.318c-.293 0-.568.114-.775.32l-.774.773a4.756 4.756 0 00-.653 5.951 48.97 48.97 0 0013.202 13.207z"/></svg>

<?xml version="1.0" encoding="utf-8"?>
<!-- Generator: Adobe Illustrator 22.1.0, SVG Export Plug-In . SVG Version: 6.00 Build 0)  -->
<svg version="1.1" id="Layer_1" xmlns="http://www.w3.org/2000/svg" xmlns:xlink="http://www.w3.org/1999/xlink" x="0px" y="0px"
	 viewBox="0 0 24 24" style="enable-background:new 0 0 24 24;" xml:space="preserve">
<title>phone</title>
<g>
	<path d="M18.023,24.039c-1.193,0-2.362-0.343-3.382-0.992c-0.003-0.002-0.026-0.017-0.029-0.018
		C9.219,19.383,4.637,14.8,0.993,9.406C-0.613,6.882-0.266,3.659,1.833,1.56l0.774-0.774c0.49-0.489,1.141-0.758,1.835-0.758
		c0.694,0,1.345,0.269,1.834,0.758c0,0,3.262,3.266,3.262,3.266c1.01,1.012,1.009,2.657-0.002,3.667
		C9.11,8.146,9.11,8.841,9.537,9.268c0,0,5.228,5.229,5.232,5.233c0.193,0.192,0.468,0.306,0.76,0.306
		c0.292,0,0.567-0.114,0.773-0.32c0.49-0.489,1.141-0.759,1.835-0.759s1.345,0.269,1.835,0.758l3.261,3.26
		c1.011,1.012,1.011,2.658,0,3.669l-0.774,0.774C21.266,23.382,19.69,24.039,18.023,24.039z M15.442,21.779
		c0.798,0.5,1.683,0.757,2.583,0.757c1.267,0,2.464-0.5,3.372-1.408l0.774-0.774c0.426-0.427,0.426-1.122,0-1.549l-3.26-3.259
		c-0.206-0.206-0.481-0.319-0.774-0.319s-0.568,0.114-0.774,0.32c-0.489,0.489-1.141,0.759-1.834,0.759
		c-0.689,0-1.337-0.266-1.824-0.75l-5.228-5.229c-1.011-1.012-1.011-2.658,0-3.669C8.901,6.233,8.903,5.54,8.478,5.113
		C8.473,5.108,8.456,5.09,8.451,5.085L5.215,1.846C5.009,1.641,4.734,1.528,4.442,1.528c-0.293,0-0.568,0.114-0.775,0.32
		L2.893,2.621C1.296,4.218,1.027,6.666,2.24,8.572C5.77,13.797,10.213,18.243,15.442,21.779L15.442,21.779z"/>
</g>
</svg>
